static/img/svg/table.svg

<?xml version="1.0" encoding="utf-8"?>
<!-- Generator: Adobe Illustrator 16.0.0, SVG Export Plug-In . SVG Version: 6.00 Build 0)  -->
<!DOCTYPE svg PUBLIC "-//W3C//DTD SVG 1.1//EN" "http://www.w3.org/Graphics/SVG/1.1/DTD/svg11.dtd">
<svg version="1.1" id="Layer_1" xmlns="http://www.w3.org/2000/svg" xmlns:xlink="http://www.w3.org/1999/xlink" x="0px" y="0px"
	 width="24px" height="24px" viewBox="0 0 24 24" enable-background="new 0 0 24 24" xml:space="preserve">
<g>
	<path d="M7,21h2h4h2h5c0.553,0,1-0.448,1-1V4c0-0.552-0.447-1-1-1H4C3.447,3,3,3.448,3,4v16c0,0.552,0.447,1,1,1H7z M13,19H9v-4h4
		V19z M13,13H9V9h4V13z M19,19h-4v-4h4V19z M19,13h-4V9h4V13z M5,5h14v2H5V5z M5,9h2v10H5V9z"/>
</g>
</svg>

<svg xmlns="http://www.w3.org/2000/svg" width="24" height="24"><path d="M7 21h13a1 1 0 0 0 1-1V4a1 1 0 0 0-1-1H4a1 1 0 0 0-1 1v16a1 1 0 0 0 1 1h3zm6-2H9v-4h4v4zm0-6H9V9h4v4zm6 6h-4v-4h4v4zm0-6h-4V9h4v4zM5 5h14v2H5V5zm0 4h2v10H5V9z"/></svg>
